public/images/timeline/leaf.svg

<svg width="16" height="16" viewBox="0 0 16 16" fill="none" xmlns="http://www.w3.org/2000/svg">
<g clip-path="url(#clip0_1184_349)">
<g filter="url(#filter0_f_1184_349)">
<mask id="path-1-inside-1_1184_349" fill="white">
<path d="M10.8002 15.6009C10.8002 15.6009 5.60008 16.0002 2.80004 12.8052C0 9.61013 0 0.0249614 0 0.0249614C0 0.0249614 9.60015 -0.374421 12.8002 2.02187C16.0002 4.41816 15.2002 11.2077 15.2002 11.2077"/>
</mask>
<path d="M10.915 17.0965C11.741 17.033 12.3592 16.312 12.2958 15.486C12.2323 14.66 11.5113 14.0418 10.6853 14.1053L10.915 17.0965ZM0 0.0249614L-0.0623486 -1.47374C-0.865829 -1.44032 -1.5 -0.779214 -1.5 0.0249614L0 0.0249614ZM13.7105 11.0321C13.6136 11.8549 14.202 12.6004 15.0247 12.6974C15.8474 12.7943 16.593 12.2059 16.6899 11.3832L13.7105 11.0321ZM10.8002 15.6009C10.6853 14.1053 10.6858 14.1052 10.6862 14.1052C10.6863 14.1052 10.6867 14.1052 10.687 14.1051C10.6875 14.1051 10.6879 14.1051 10.6882 14.105C10.6888 14.105 10.6892 14.105 10.6892 14.105C10.6893 14.105 10.6882 14.105 10.6859 14.1052C10.6813 14.1055 10.672 14.1061 10.6582 14.1069C10.6306 14.1084 10.5852 14.1106 10.5237 14.1125C10.4006 14.1164 10.2143 14.1193 9.97913 14.1138C9.50634 14.1026 8.84909 14.058 8.11804 13.9253C6.62051 13.6534 5.0079 13.0486 3.92814 11.8166L1.67194 13.7938C3.39223 15.7568 5.77968 16.5498 7.5822 16.877C8.50117 17.0439 9.31895 17.0991 9.90867 17.1129C10.2047 17.1199 10.4465 17.1165 10.6188 17.111C10.705 17.1083 10.774 17.105 10.8239 17.1023C10.8489 17.1009 10.8692 17.0996 10.8844 17.0986C10.892 17.0981 10.8984 17.0977 10.9035 17.0973C10.9061 17.0971 10.9083 17.097 10.9103 17.0968C10.9112 17.0967 10.9121 17.0967 10.9129 17.0966C10.9133 17.0966 10.9138 17.0966 10.914 17.0965C10.9145 17.0965 10.915 17.0965 10.8002 15.6009ZM3.92814 11.8166C3.44313 11.2631 2.99341 10.3143 2.62109 9.03976C2.25789 7.79644 2.00789 6.3845 1.83839 5.03059C1.6696 3.68238 1.58468 2.42529 1.54216 1.50345C1.52095 1.04356 1.5104 0.669605 1.50516 0.4125C1.50254 0.284004 1.50125 0.18486 1.50061 0.118942C1.5003 0.0859886 1.50014 0.0613548 1.50007 0.0455258C1.50003 0.0376118 1.50001 0.0319004 1.50001 0.0284524C1.5 0.0267284 1.5 0.0255704 1.5 0.024986C1.5 0.0246938 1.5 0.024545 1.5 0.0245406C1.5 0.0245382 1.5 0.0246438 1.5 0.0246423C1.5 0.0247836 1.5 0.0249614 0 0.0249614C-1.5 0.0249614 -1.5 0.0252122 -1.5 0.0254996C-1.5 0.0256442 -1.5 0.0259686 -1.5 0.0262578C-1.5 0.0268365 -1.5 0.0275615 -1.5 0.0284317C-1.5 0.0301722 -1.49999 0.0324939 -1.49999 0.0353893C-1.49997 0.0411799 -1.49995 0.0492655 -1.4999 0.059585C-1.4998 0.080223 -1.49961 0.109802 -1.49925 0.147832C-1.49851 0.223883 -1.49707 0.333791 -1.49422 0.473629C-1.48852 0.753194 -1.47719 1.15304 -1.45466 1.64168C-1.40967 2.61691 -1.31959 3.9558 -1.13838 5.40327C-0.957873 6.84503 -0.682865 8.42846 -0.258556 9.88097C0.15664 11.3023 0.756932 12.7497 1.67194 13.7938L3.92814 11.8166ZM0 0.0249614C0.0623486 1.52367 0.0621924 1.52367 0.0620728 1.52368C0.0620815 1.52368 0.0619977 1.52368 0.0620147 1.52368C0.0620483 1.52368 0.0622267 1.52367 0.0625488 1.52366C0.063193 1.52363 0.064412 1.52358 0.0661983 1.52351C0.0697709 1.52337 0.0756118 1.52314 0.0836602 1.52284C0.099758 1.52224 0.124681 1.52134 0.157942 1.52025C0.224474 1.51806 0.324313 1.51508 0.453576 1.51208C0.712206 1.50607 1.08802 1.5 1.55002 1.5C2.47595 1.5 3.73875 1.5244 5.09337 1.62101C6.45367 1.71802 7.87386 1.88566 9.12523 2.16331C10.4137 2.4492 11.3606 2.81784 11.9011 3.22255L13.6993 0.821198C12.6397 0.027762 11.1866 -0.452287 9.77506 -0.765469C8.32639 -1.08689 6.74653 -1.26871 5.30678 -1.37139C3.86137 -1.47448 2.52413 -1.5 1.55002 -1.5C1.06202 -1.5 0.662815 -1.49359 0.383936 -1.48712C0.244445 -1.48388 0.134906 -1.48062 0.0592487 -1.47813C0.0214154 -1.47688 -0.00795971 -1.47583 -0.0283859 -1.47506C-0.0385995 -1.47468 -0.0465772 -1.47437 -0.0522576 -1.47415C-0.0550979 -1.47404 -0.0573641 -1.47395 -0.0590484 -1.47388C-0.0598906 -1.47384 -0.0605873 -1.47381 -0.0611376 -1.47379C-0.0614127 -1.47378 -0.0617157 -1.47377 -0.0618533 -1.47376C-0.0621192 -1.47375 -0.0623486 -1.47374 0 0.0249614ZM11.9011 3.22255C12.9525 4.00985 13.5126 5.71445 13.7077 7.66286C13.799 8.57458 13.7995 9.42658 13.7763 10.0538C13.7647 10.3656 13.7474 10.6177 13.7334 10.7885C13.7264 10.8738 13.7202 10.9386 13.716 10.9802C13.7139 11.001 13.7123 11.0159 13.7114 11.0247C13.7109 11.0291 13.7106 11.0319 13.7104 11.0332C13.7103 11.0338 13.7103 11.034 13.7103 11.0339C13.7103 11.0338 13.7104 11.0336 13.7104 11.0333C13.7104 11.0332 13.7105 11.0329 13.7105 11.0328C13.7105 11.0325 13.7105 11.0321 15.2002 11.2077C16.6899 11.3832 16.69 11.3828 16.69 11.3824C16.69 11.3822 16.6901 11.3818 16.6901 11.3814C16.6902 11.3807 16.6903 11.3799 16.6904 11.379C16.6906 11.3772 16.6909 11.3749 16.6912 11.3723C16.6918 11.367 16.6926 11.3601 16.6935 11.3515C16.6954 11.3345 16.6979 11.311 16.7009 11.2815C16.7068 11.2224 16.7147 11.139 16.7233 11.034C16.7406 10.8242 16.7608 10.527 16.7742 10.165C16.8009 9.44422 16.8015 8.44908 16.6928 7.36389C16.4879 5.31848 15.848 2.43018 13.6993 0.821198L11.9011 3.22255Z" fill="white" mask="url(#path-1-inside-1_1184_349)"/>
</g>
<g filter="url(#filter1_f_1184_349)">
<mask id="path-3-inside-2_1184_349" fill="white">
<path d="M16 16.0001C16 16.0001 11.5282 12.6259 8.79987 9.60999C6.07154 6.59406 4.7998 3.61926 4.7998 3.61926"/>
</mask>
<path d="M15.0965 17.1975C15.7578 17.6965 16.6984 17.5649 17.1974 16.9036C17.6963 16.2423 17.5648 15.3017 16.9035 14.8027L15.0965 17.1975ZM6.17905 3.02963C5.85341 2.26789 4.97191 1.91437 4.21017 2.24001C3.44843 2.56566 3.09491 3.44716 3.42055 4.2089L6.17905 3.02963ZM16 16.0001C16.9035 14.8027 16.9035 14.8028 16.9036 14.8028C16.9036 14.8028 16.9036 14.8028 16.9036 14.8028C16.9035 14.8028 16.9034 14.8027 16.9033 14.8026C16.903 14.8023 16.9024 14.8019 16.9015 14.8012C16.8998 14.7999 16.897 14.7978 16.8931 14.7949C16.8855 14.7891 16.8737 14.7801 16.8579 14.7681C16.8263 14.7441 16.7788 14.7078 16.717 14.6603C16.5934 14.5652 16.4125 14.425 16.1862 14.247C15.7335 13.8907 15.1012 13.3843 14.3855 12.7855C12.9424 11.5783 11.2058 10.0336 9.91224 8.6037L7.68749 10.6163C9.12228 12.2023 10.9857 13.8527 12.4606 15.0865C13.2038 15.7083 13.86 16.2339 14.331 16.6045C14.5667 16.79 14.7564 16.937 14.888 17.0382C14.9538 17.0888 15.005 17.128 15.0403 17.1548C15.0579 17.1683 15.0716 17.1786 15.081 17.1857C15.0857 17.1893 15.0894 17.1921 15.092 17.1941C15.0933 17.195 15.0943 17.1958 15.095 17.1964C15.0954 17.1967 15.0957 17.1969 15.096 17.1971C15.0961 17.1972 15.0962 17.1973 15.0963 17.1973C15.0964 17.1974 15.0965 17.1975 16 16.0001ZM9.91224 8.6037C8.63234 7.18888 7.69054 5.77911 7.06974 4.72334C6.76016 4.19684 6.53263 3.76219 6.38468 3.46417C6.31075 3.31527 6.25685 3.20081 6.22266 3.12643C6.20556 3.08925 6.19341 3.06212 6.18615 3.04574C6.18252 3.03755 6.18012 3.03205 6.17894 3.02934C6.17835 3.02798 6.17806 3.02732 6.17808 3.02736C6.17809 3.02738 6.17818 3.02758 6.17834 3.02796C6.17842 3.02815 6.17852 3.02838 6.17864 3.02866C6.1787 3.0288 6.1788 3.02904 6.17883 3.02911C6.17894 3.02936 6.17905 3.02963 4.7998 3.61926C3.42055 4.2089 3.42068 4.20919 3.42081 4.20948C3.42085 4.2096 3.42099 4.20991 3.42109 4.21014C3.42128 4.2106 3.4215 4.2111 3.42173 4.21165C3.42221 4.21275 3.42276 4.21403 3.42339 4.2155C3.42465 4.21842 3.42623 4.22208 3.42813 4.22644C3.43193 4.23516 3.437 4.24674 3.44335 4.26108C3.45606 4.28975 3.47389 4.32947 3.4969 4.37952C3.54291 4.47961 3.60968 4.62111 3.69761 4.79822C3.87337 5.15223 4.1343 5.64978 4.48368 6.24396C5.18084 7.42958 6.23907 9.01518 7.68749 10.6163L9.91224 8.6037Z" fill="white" mask="url(#path-3-inside-2_1184_349)"/>
</g>
<mask id="path-5-inside-3_1184_349" fill="white">
<path d="M10.8002 15.6009C10.8002 15.6009 5.60008 16.0002 2.80004 12.8052C0 9.61013 0 0.0249614 0 0.0249614C0 0.0249614 9.60015 -0.374421 12.8002 2.02187C16.0002 4.41816 15.2002 11.2077 15.2002 11.2077"/>
</mask>
<path d="M10.915 17.0965C11.741 17.033 12.3592 16.312 12.2958 15.486C12.2323 14.66 11.5113 14.0418 10.6853 14.1052L10.915 17.0965ZM0 0.0249614L-0.0623496 -1.47377C-0.865842 -1.44034 -1.50002 -0.779226 -1.50002 0.0249614L0 0.0249614ZM13.7105 11.0321C13.6136 11.8549 14.2019 12.6004 15.0247 12.6974C15.8474 12.7943 16.593 12.2059 16.6899 11.3832L13.7105 11.0321ZM10.8002 15.6009C10.6853 14.1052 10.6858 14.1052 10.6862 14.1052C10.6863 14.1052 10.6867 14.1051 10.687 14.1051C10.6874 14.1051 10.6879 14.105 10.6882 14.105C10.6888 14.105 10.6892 14.105 10.6892 14.1049C10.6893 14.1049 10.6882 14.105 10.6859 14.1052C10.6813 14.1055 10.672 14.1061 10.6582 14.1068C10.6306 14.1084 10.5852 14.1106 10.5237 14.1125C10.4006 14.1164 10.2143 14.1193 9.97913 14.1137C9.50634 14.1026 8.84909 14.058 8.11805 13.9253C6.62051 13.6534 5.00791 13.0486 3.92816 11.8165L1.67192 13.7938C3.39222 15.7568 5.77967 16.5499 7.58219 16.8771C8.50117 17.0439 9.31894 17.0991 9.90867 17.113C10.2047 17.1199 10.4465 17.1165 10.6188 17.1111C10.705 17.1083 10.774 17.1051 10.8239 17.1023C10.8489 17.1009 10.8692 17.0997 10.8844 17.0986C10.892 17.0981 10.8984 17.0977 10.9035 17.0973C10.9061 17.0971 10.9083 17.097 10.9103 17.0968C10.9112 17.0968 10.9121 17.0967 10.9129 17.0966C10.9133 17.0966 10.9138 17.0966 10.914 17.0966C10.9145 17.0965 10.915 17.0965 10.8002 15.6009ZM3.92816 11.8165C3.44315 11.2631 2.99343 10.3143 2.62111 9.03975C2.25791 7.79643 2.00791 6.3845 1.83841 5.03059C1.66962 3.68238 1.5847 2.42529 1.54218 1.50345C1.52097 1.04356 1.51042 0.669604 1.50518 0.412499C1.50256 0.284003 1.50127 0.184859 1.50064 0.118942C1.50032 0.0859885 1.50017 0.0613547 1.50009 0.0455257C1.50005 0.0376117 1.50004 0.0319004 1.50003 0.0284523C1.50003 0.0267283 1.50002 0.0255704 1.50002 0.024986C1.50002 0.0246938 1.50002 0.024545 1.50002 0.0245406C1.50002 0.0245382 1.50002 0.0246438 1.50002 0.0246423C1.50002 0.0247836 1.50002 0.0249614 0 0.0249614C-1.50002 0.0249614 -1.50002 0.0252123 -1.50002 0.0254996C-1.50002 0.0256442 -1.50002 0.0259686 -1.50002 0.0262578C-1.50002 0.0268365 -1.50002 0.0275615 -1.50002 0.0284318C-1.50002 0.0301722 -1.50002 0.032494 -1.50001 0.0353893C-1.49999 0.0411799 -1.49997 0.0492656 -1.49992 0.0595851C-1.49982 0.0802231 -1.49964 0.109802 -1.49927 0.147833C-1.49854 0.223883 -1.49709 0.333791 -1.49424 0.47363C-1.48855 0.753195 -1.47722 1.15304 -1.45468 1.64168C-1.4097 2.61691 -1.31961 3.9558 -1.1384 5.40327C-0.957896 6.84504 -0.682888 8.42847 -0.258578 9.88097C0.156619 11.3023 0.756911 12.7497 1.67192 13.7938L3.92816 11.8165ZM0 0.0249614C0.0623496 1.52369 0.0621934 1.52369 0.0620737 1.5237C0.0620824 1.5237 0.0619986 1.5237 0.0620156 1.5237C0.0620493 1.5237 0.0622277 1.52369 0.0625497 1.52368C0.0631939 1.52365 0.0644129 1.5236 0.0661992 1.52353C0.0697718 1.52339 0.0756126 1.52317 0.0836611 1.52287C0.0997588 1.52226 0.124681 1.52137 0.157943 1.52027C0.224475 1.51808 0.324314 1.5151 0.453577 1.5121C0.712206 1.50609 1.08802 1.50002 1.55002 1.50002C2.47595 1.50002 3.73874 1.52442 5.09337 1.62103C6.45367 1.71804 7.87385 1.88568 9.12523 2.16333C10.4137 2.44922 11.3606 2.81786 11.9011 3.22256L13.6993 0.821179C12.6397 0.0277406 11.1866 -0.452309 9.77506 -0.765492C8.32639 -1.08692 6.74653 -1.26874 5.30679 -1.37142C3.86137 -1.4745 2.52413 -1.50002 1.55002 -1.50002C1.06202 -1.50002 0.662814 -1.49361 0.383936 -1.48714C0.244445 -1.4839 0.134906 -1.48064 0.0592479 -1.47815C0.0214146 -1.4769 -0.00796054 -1.47585 -0.0283868 -1.47509C-0.0386004 -1.47471 -0.0465781 -1.4744 -0.0522585 -1.47417C-0.0550988 -1.47406 -0.057365 -1.47397 -0.0590493 -1.4739C-0.0598915 -1.47387 -0.0605882 -1.47384 -0.0611386 -1.47382C-0.0614136 -1.4738 -0.0617167 -1.47379 -0.0618542 -1.47379C-0.0621201 -1.47377 -0.0623496 -1.47377 0 0.0249614ZM11.9011 3.22256C12.9525 4.00986 13.5125 5.71445 13.7077 7.66286C13.799 8.57458 13.7995 9.42658 13.7762 10.0538C13.7647 10.3656 13.7474 10.6177 13.7334 10.7885C13.7264 10.8738 13.7202 10.9386 13.716 10.9802C13.7139 11.001 13.7123 11.0159 13.7113 11.0247C13.7109 11.0291 13.7105 11.0319 13.7104 11.0332C13.7103 11.0338 13.7103 11.034 13.7103 11.0339C13.7103 11.0338 13.7103 11.0336 13.7104 11.0333C13.7104 11.0331 13.7104 11.0329 13.7104 11.0328C13.7105 11.0325 13.7105 11.0321 15.2002 11.2077C16.6899 11.3832 16.69 11.3828 16.69 11.3824C16.6901 11.3822 16.6901 11.3818 16.6902 11.3814C16.6902 11.3807 16.6903 11.3799 16.6904 11.379C16.6906 11.3772 16.6909 11.3749 16.6912 11.3723C16.6918 11.367 16.6926 11.3601 16.6935 11.3515C16.6954 11.3345 16.6979 11.311 16.7009 11.2815C16.7068 11.2224 16.7147 11.139 16.7233 11.034C16.7406 10.8242 16.7608 10.527 16.7742 10.165C16.801 9.44422 16.8015 8.44908 16.6928 7.36389C16.4879 5.31848 15.848 2.43017 13.6993 0.821179L11.9011 3.22256Z" fill="white" mask="url(#path-5-inside-3_1184_349)"/>
<mask id="path-7-inside-4_1184_349" fill="white">
<path d="M16 16.0001C16 16.0001 11.5282 12.6259 8.79987 9.60999C6.07154 6.59406 4.7998 3.61926 4.7998 3.61926"/>
</mask>
<path d="M15.0965 17.1975C15.7578 17.6965 16.6984 17.5649 17.1974 16.9036C17.6964 16.2423 17.5648 15.3017 16.9035 14.8027L15.0965 17.1975ZM6.17908 3.02962C5.85342 2.26787 4.97191 1.91434 4.21016 2.23999C3.44841 2.56564 3.09488 3.44716 3.42053 4.20891L6.17908 3.02962ZM16 16.0001C16.9035 14.8027 16.9035 14.8028 16.9036 14.8028C16.9036 14.8028 16.9036 14.8028 16.9036 14.8028C16.9036 14.8028 16.9035 14.8027 16.9033 14.8026C16.903 14.8023 16.9024 14.8019 16.9015 14.8012C16.8998 14.7999 16.897 14.7978 16.8932 14.7949C16.8855 14.7891 16.8737 14.7801 16.8579 14.7681C16.8263 14.7441 16.7789 14.7078 16.7171 14.6603C16.5934 14.5652 16.4125 14.425 16.1863 14.247C15.7335 13.8907 15.1012 13.3843 14.3855 12.7855C12.9425 11.5783 11.2058 10.0336 9.91226 8.60369L7.68748 10.6163C9.12226 12.2023 10.9857 13.8527 12.4606 15.0865C13.2038 15.7083 13.86 16.2339 14.331 16.6046C14.5667 16.79 14.7564 16.937 14.8879 17.0382C14.9537 17.0888 15.005 17.128 15.0403 17.1549C15.0579 17.1683 15.0715 17.1786 15.081 17.1858C15.0857 17.1893 15.0893 17.1921 15.0919 17.1941C15.0932 17.1951 15.0943 17.1958 15.095 17.1964C15.0954 17.1967 15.0957 17.1969 15.096 17.1971C15.0961 17.1972 15.0962 17.1973 15.0963 17.1973C15.0964 17.1974 15.0965 17.1975 16 16.0001ZM9.91226 8.60369C8.63236 7.18886 7.69056 5.7791 7.06976 4.72333C6.76018 4.19683 6.53265 3.76218 6.3847 3.46416C6.31077 3.31526 6.25687 3.2008 6.22268 3.12642C6.20559 3.08924 6.19343 3.06211 6.18617 3.04573C6.18255 3.03754 6.18014 3.03204 6.17896 3.02933C6.17837 3.02797 6.17809 3.02731 6.1781 3.02735C6.17811 3.02738 6.1782 3.02757 6.17836 3.02795C6.17844 3.02814 6.17854 3.02837 6.17866 3.02865C6.17872 3.02879 6.17882 3.02903 6.17885 3.0291C6.17896 3.02935 6.17908 3.02962 4.7998 3.61926C3.42053 4.20891 3.42066 4.20919 3.42078 4.20949C3.42083 4.20961 3.42097 4.20992 3.42106 4.21015C3.42126 4.21061 3.42148 4.21111 3.42171 4.21166C3.42219 4.21276 3.42274 4.21404 3.42337 4.21551C3.42463 4.21843 3.42621 4.22208 3.42811 4.22645C3.43191 4.23517 3.43698 4.24675 3.44333 4.26109C3.45604 4.28976 3.47387 4.32948 3.49688 4.37953C3.54289 4.47962 3.60966 4.62112 3.69759 4.79824C3.87335 5.15224 4.13428 5.64979 4.48366 6.24398C5.18082 7.42959 6.23905 9.01519 7.68748 10.6163L9.91226 8.60369Z" fill="white" mask="url(#path-7-inside-4_1184_349)"/>
</g>
<defs>
<filter id="filter0_f_1184_349" x="-1" y="-1" width="17.2891" height="17.6168" filterUnits="userSpaceOnUse" color-interpolation-filters="sRGB">
<feFlood flood-opacity="0" result="BackgroundImageFix"/>
<feBlend mode="normal" in="SourceGraphic" in2="BackgroundImageFix" result="shape"/>
<feGaussianBlur stdDeviation="0.5" result="effect1_foregroundBlur_1184_349"/>
</filter>
<filter id="filter1_f_1184_349" x="3.7998" y="2.61926" width="13.2002" height="14.3809" filterUnits="userSpaceOnUse" color-interpolation-filters="sRGB">
<feFlood flood-opacity="0" result="BackgroundImageFix"/>
<feBlend mode="normal" in="SourceGraphic" in2="BackgroundImageFix" result="shape"/>
<feGaussianBlur stdDeviation="0.5" result="effect1_foregroundBlur_1184_349"/>
</filter>
<clipPath id="clip0_1184_349">
<rect width="16" height="16" fill="white"/>
</clipPath>
</defs>
</svg>

<svg width="16" height="16" fill="none" xmlns="http://www.w3.org/2000/svg"><g clip-path="url(#a)" fill="#fff"><g filter="url(#b)"><mask id="c"><path d="M10.8 15.6s-5.2.4-8-2.795S0 .025 0 .025s9.6-.4 12.8 1.997c3.2 2.396 2.4 9.186 2.4 9.186"/></mask><path d="M10.915 17.096a1.5 1.5 0 0 0-.23-2.99l.23 2.99zM0 .025l-.062-1.499A1.5 1.5 0 0 0-1.5.025H0zm13.71 11.007a1.5 1.5 0 0 0 2.98.351l-2.98-.35zm-2.91 4.569a251.675 251.675 0 0 1-.114-1.496h.003-.003a3.734 3.734 0 0 1-.162.008 12.171 12.171 0 0 1-2.406-.187c-1.497-.273-3.11-.877-4.19-2.11l-2.256 1.978c1.72 1.963 4.108 2.756 5.91 3.083a15.141 15.141 0 0 0 3.037.234 8.971 8.971 0 0 0 .265-.012l.02-.002H10.913L10.8 15.6zm-6.872-3.784c-.485-.554-.935-1.503-1.307-2.777-.363-1.244-.613-2.655-.783-4.01A45.95 45.95 0 0 1 1.5.029V.025h-3V.06a19.253 19.253 0 0 0 .006.414 48.954 48.954 0 0 0 .356 4.93c.18 1.441.455 3.024.88 4.477.415 1.421 1.015 2.869 1.93 3.913l2.256-1.977zM0 .025l.062 1.499h.004l.018-.001a16.483 16.483 0 0 1 .37-.01 50.735 50.735 0 0 1 4.64.109c1.36.096 2.78.264 4.031.541 1.289.286 2.236.655 2.776 1.06L13.7.82C12.64.028 11.187-.452 9.775-.765c-1.449-.322-3.028-.504-4.468-.606a53.727 53.727 0 0 0-5.335-.104h-.024a2.542 2.542 0 0 0-.01.001L0 .025zm11.901 3.198c1.052.787 1.612 2.491 1.807 4.44a17.816 17.816 0 0 1 .008 3.317l-.005.045v.008s0 .001 0 0l1.49.175 1.489.174v-.003l.001-.007.003-.02a7.366 7.366 0 0 0 .03-.318 20.802 20.802 0 0 0-.03-3.67c-.206-2.046-.846-4.934-2.995-6.543l-1.798 2.402z" mask="url(#c)"/></g><g filter="url(#d)"><mask id="e"><path d="M16 16s-4.472-3.374-7.2-6.39c-2.728-3.016-4-5.99-4-5.99"/></mask><path d="M15.097 17.198a1.5 1.5 0 1 0 1.807-2.395l-1.807 2.395zM6.179 3.03a1.5 1.5 0 1 0-2.758 1.179l2.758-1.18zM16 16l.904-1.197-.003-.002a.884.884 0 0 0-.043-.033c-.032-.024-.08-.06-.141-.108a78.452 78.452 0 0 1-2.331-1.875c-1.444-1.207-3.18-2.751-4.474-4.181l-2.225 2.012c1.435 1.586 3.299 3.237 4.774 4.47a81.17 81.17 0 0 0 2.58 2.069c.017.013.03.024.04.03l.011.01.003.001.001.001L16 16zM9.912 8.604a23.927 23.927 0 0 1-2.842-3.88c-.31-.527-.537-.962-.685-1.26a12.627 12.627 0 0 1-.206-.435v-.002.002l-1.38.59-1.378.59v.003a.666.666 0 0 1 .022.05l.054.118c.046.1.113.241.2.418.176.354.437.852.787 1.446a26.928 26.928 0 0 0 3.203 4.372l2.225-2.012z" mask="url(#e)"/></g><mask id="f"><path d="M10.8 15.6s-5.2.4-8-2.795S0 .025 0 .025s9.6-.4 12.8 1.997c3.2 2.396 2.4 9.186 2.4 9.186"/></mask><path d="M10.915 17.096a1.5 1.5 0 0 0-.23-2.99l.23 2.99zM0 .025l-.062-1.499A1.5 1.5 0 0 0-1.5.025H0zm13.71 11.007a1.5 1.5 0 0 0 2.98.351l-2.98-.35zm-2.91 4.569-.114-1.496h.003-.003l-.028.002a9.902 9.902 0 0 1-.68.007 12.156 12.156 0 0 1-1.86-.189c-1.497-.272-3.11-.876-4.19-2.109l-2.256 1.978c1.72 1.963 4.108 2.756 5.91 3.083a15.167 15.167 0 0 0 3.037.234 8.87 8.87 0 0 0 .265-.012l.02-.002H10.913L10.8 15.6zm-6.872-3.785c-.485-.553-.935-1.502-1.307-2.776-.363-1.244-.613-2.655-.783-4.01A45.95 45.95 0 0 1 1.5.047V.025h-3V.06a17.897 17.897 0 0 0 .006.414 48.949 48.949 0 0 0 .356 4.93c.18 1.441.455 3.024.88 4.477.415 1.421 1.015 2.869 1.93 3.913l2.256-1.978zM0 .025l.062 1.499a.606.606 0 0 1 .022-.001 16.134 16.134 0 0 1 .37-.01 50.735 50.735 0 0 1 4.64.109c1.36.096 2.78.264 4.031.541 1.289.286 2.236.655 2.776 1.06L13.7.82C12.64.028 11.187-.452 9.775-.765c-1.449-.322-3.028-.504-4.468-.606A53.733 53.733 0 0 0-.06-1.474h-.002L0 .025zm11.901 3.198c1.052.787 1.611 2.491 1.807 4.44a17.797 17.797 0 0 1 .003 3.362v.008s0 .001 0 0l1.49.175 1.489.174v-.003l.001-.007.003-.02a7.366 7.366 0 0 0 .03-.318 20.785 20.785 0 0 0-.03-3.67c-.206-2.046-.846-4.934-2.995-6.543l-1.798 2.402z" mask="url(#f)"/><mask id="g"><path d="M16 16s-4.472-3.374-7.2-6.39c-2.728-3.016-4-5.99-4-5.99"/></mask><path d="M15.097 17.198a1.5 1.5 0 1 0 1.807-2.395l-1.807 2.395zM6.179 3.03a1.5 1.5 0 0 0-2.758 1.179l2.758-1.18zM16 16l.904-1.197-.003-.002-.008-.006-.035-.027c-.032-.024-.08-.06-.14-.108a78.206 78.206 0 0 1-2.332-1.875c-1.443-1.207-3.18-2.751-4.474-4.181l-2.225 2.012c1.435 1.586 3.299 3.237 4.774 4.47a81.486 81.486 0 0 0 2.58 2.069c.017.013.03.024.04.03l.01.01.004.001.001.001L16 16zM9.912 8.604a23.928 23.928 0 0 1-2.842-3.88c-.31-.527-.537-.962-.685-1.26a12.627 12.627 0 0 1-.206-.435v-.002.002l-1.38.59-1.378.59v.003a.666.666 0 0 1 .022.05l.054.118c.046.1.113.241.2.418.176.354.437.852.787 1.446a26.927 26.927 0 0 0 3.203 4.372l2.225-2.012z" mask="url(#g)"/></g><defs><filter id="b" x="-1" y="-1" width="17.289" height="17.617" filterUnits="userSpaceOnUse" color-interpolation-filters="sRGB"><feFlood flood-opacity="0" result="BackgroundImageFix"/><feBlend in="SourceGraphic" in2="BackgroundImageFix" result="shape"/><feGaussianBlur stdDeviation=".5" result="effect1_foregroundBlur_1184_349"/></filter><filter id="d" x="3.8" y="2.619" width="13.2" height="14.381" filterUnits="userSpaceOnUse" color-interpolation-filters="sRGB"><feFlood flood-opacity="0" result="BackgroundImageFix"/><feBlend in="SourceGraphic" in2="BackgroundImageFix" result="shape"/><feGaussianBlur stdDeviation=".5" result="effect1_foregroundBlur_1184_349"/></filter><clipPath id="a"><path fill="#fff" d="M0 0h16v16H0z"/></clipPath></defs></svg>
